X:20
T:Rule Britannia
A:Wyresdale, Lancashire
B:H.S.J. Jackson, 1823
L:1/8
M:C
O:England
Q:Maestoso
Z:Richard Robinson 
%%TUNEURL: http://www.leeds.ac.uk/music/Info/RRTuneBk/gettune/00000df6.html
%%ID:00000df6
K:C
G2 |\
c2 c2 (c/d/e/f/) gc | d2 (de/f/) e2 zG | \
(c/B/c/d/) (e/d/e/f/) (gd)(ed) | (cd/e/) dc B3G |
(BG)(dB) (g^f/e/) (d/e/d/c/) | B2 (TA>G) G2 z2 |\
c2 (cG) (AF) zc | (fe)(dc) G2 zG |
g2 f2 (e/c/)(f/d/) g/e/d/c/ | G2 Td2 c2 z2 |\
"^Chorus" \
e3e ff ze | (fe)(dc) G2 z2 |\
g2 f2 (e/c/)(f/d/) (f/e/)(d/c/) | G2 Td2 c2 |]
